X: 4799
T: Boys Of The Lough, The
R: reel
M: 4/4
K: Dmajor
|:A~D3 F~A2B|defd ecdB|"A" (3.A.c.A FA dBAF|(3GFE FD E2 FG|
A~D3 F~A2B|defd ecdB|(3.A.c.A FA dBAF|1 GFEG FDD2:|2 GFEG FDD||
f|:af (3.g.f.e fdec|dcBA BcdB|(3.A.c.A FA dAFA|"B" EGFD E2fg|
af (3.g.f.e fdec|dcBA BcdB|(3.A.c.A FA dAFA|GFEG FDD2:|
"Variations" "A"A~F3 d~F3|E^DEF E2FG|"B" (3GFE FDE2 fg|

